X:1
T:Back to The Quaker's Wife
L:1/8
Q:1/4=160
M:6/8
K:D
"D""^Back to The Quaker's Wife" def A2 f |"G" g2 f"A" e2 A |"D" def AFA |"G" B3"D" d2 A |
"D" def Adf |"G" agf"A" e2 A |"D" def AFA |"G" B3"D" d2 A |]
